X: 2
T: POLKAS: John Walsh's Set
T: John Walsh's No. 1 / Goblachan / Derrygallen Bridge
C: C: John Walsh; S: Polca an Rí; John Walsh
C: Set Leaders: Anton, Sophie
Z: By Anton Zille / Bregolas at The Session
N: https://thesession.org/members/26966/sets/7124
R: Polka
M: 2/4
L: 1/8
Q: 1/4=140
K: Gmaj
D|:G>A BA|GE E>D|B,>D ED|B,D ED|
G>A BA|GE E>D|B,>D ED|1 G2 GD:|2 G2 GB/d/||
|:g2 fg|ag g/a/g/e/|dB B/c/B/A/|G>A Bd|
g>g fg|ag g/a/g/e/|dB BA|1 G2 Bd:|2 G2 GD||
T: John Walsh's / Monvara Bridge
K: Gmaj
|:GB B/c/B/A/|!segno!GB Bc/B/|AB cd|ed B>A|
GB B/c/B/A/|GB Bc/B/|AB cA|1 G2 GD:|2 G2 GB||
|:dg g/a/g/e/|dB Bc/B/|AB cd|ed B>c|
dg g/a/g/e/|dB Bc/B/|AB cA|G2 GB:||
|:dg ga/b/|ag g2|e/f/g ed|dB B>c|
dg g>a|bg gd|e/f/g ed|g2 g/a/g/e/!coda!:||dB B/c/B/A/!D.S.!||
T: John Walsh's / Daly's Mill
K: Gmaj
|:GB de|dB B/c/B/A/|G>B de|d2 d/e/d/B/|
G>B de|dB B/c/B/A/|GE ED/E/|1 G2 GD:|2 GA Bd||
|:ed B/c/B/A/|GE ED/E/|GB/A/ GB|d2 dB/d/|
ed B/c/B/A/|GE ED/E/|GB/A/ GE|1 G2 Bd:|2 G2 GD||

